Papirus-Light/24x24/animations/nm-vpn-connecting01.svg

<?xml version="1.0" encoding="UTF-8" standalone="no"?>
<svg xmlns="http://www.w3.org/2000/svg" version="1.1" width="24" height="24">
 <defs>
  <linearGradient y2="5" x2="19" gradientTransform="matrix(0,-1,-1,0,24,24)" y1="12" gradientUnits="userSpaceOnUse" x1="7" id="linearGradient3605">
   <stop offset="0" stop-opacity=".5" stop-color="#5c616c"/>
   <stop offset="1" stop-opacity="0" stop-color="#5c616c"/>
  </linearGradient>
  <linearGradient y2="12" x2="17" gradientTransform="matrix(0,1,1,0,0,0)" y1="12" gradientUnits="userSpaceOnUse" x1="7" id="linearGradient3611">
   <stop offset="0" stop-color="#5c616c"/>
   <stop offset="1" stop-color="#5c616c" stop-opacity=".5"/>
  </linearGradient>
 </defs>
 <path d="M 12 5 C 8.134 5 5 8.134 5 12 C 5 15.866 8.134 19 12 19 L 12 17 C 9.2386 17 7 14.761 7 12 C 7 9.2386 9.2386 7 12 7 C 13.3 7 13.3 5 12 5 z" style="fill:url(#linearGradient3611)"/>
 <path d="M 12 5 L 12 7 C 14.761 7 17 9.2386 17 12 C 17.753524 12 18.431103 12.295575 18.955078 12.763672 C 18.982861 12.512588 19 12.25905 19 12 C 19 8.134 15.866 5 12 5 z M 13 16.871094 C 12.676492 16.944588 12.346036 17 12 17 L 12 19 C 12.341233 19 12.672761 18.966399 13 18.917969 L 13 16.871094 z" style="fill:url(#linearGradient3605)"/>
 <path fill="#5c616c" d="m17 13c-1.108 0-2 .91085-2 2.0312v.96875h-1v4h6v-4h-1v-.96875c0-1.12-.892-2.031-2-2.031zm0 1c.554 0 1 .4424 1 1v1h-2v-1c0-.5576.446-1 1-1z"/>
</svg>

<?xml version="1.0" encoding="UTF-8" standalone="no"?>
<svg xmlns="http://www.w3.org/2000/svg" height="24" width="24" version="1.1">
 <defs>
  <linearGradient id="linearGradient3605" x1="7" gradientUnits="userSpaceOnUse" y1="12" gradientTransform="matrix(0,-1,-1,0,24,24)" x2="19" y2="5">
   <stop stop-color="#5c616c" stop-opacity=".5" offset="0"/>
   <stop stop-color="#5c616c" stop-opacity="0" offset="1"/>
  </linearGradient>
  <linearGradient id="linearGradient3611" x1="7" gradientUnits="userSpaceOnUse" y1="12" gradientTransform="matrix(0,1,1,0,0,0)" x2="17" y2="12">
   <stop stop-color="#5c616c" offset="0"/>
   <stop stop-opacity=".5" stop-color="#5c616c" offset="1"/>
  </linearGradient>
 </defs>
 <path fill="url(#linearGradient3611)" d="m12 5c-3.866 0-7 3.134-7 7s3.134 7 7 7v-2c-2.7614 0-5-2.239-5-5 0-2.7614 2.2386-5 5-5 1.3 0 1.3-2 0-2z"/>
 <path fill="url(#linearGradient3605)" d="m12 5v2c2.761 0 5 2.2386 5 5 0 .169-.009.337-.025.502.008 0 .016-.002.025-.002.746 0 1.407.340 1.865.865.088-.442.135-.897.135-1.365 0-3.866-3.134-7-7-7zm1.5 11.746c-.476.151-.974.254-1.5.254v2c.516 0 1.016-.060 1.5-.166v-2.088z"/>
 <path fill="#5c616c" d="m17 13c-1.108 0-2 .91085-2 2.0312v.96875h-1v4h6v-4h-1v-.96875c0-1.12-.892-2.031-2-2.031zm0 1c.554 0 1 .4424 1 1v1h-2v-1c0-.5576.446-1 1-1z"/>
</svg>
